X:159
T:The Lewanee reel
C:Liz Kane
S:Christina Smith, Victoria Bar, Glasgow
D:Liz and Yvonne Kane: The Well Tempered Bow
Z:robin.beech@mcgill.ca
R:reel
M:4/4
L:1/8
K:Amin
D3d- dcAG | F3E EDCE | Dddc dfeg | fage f2fg |
gffe fdcA | dfed cAGE | DddB cAGE | CDEC D2 CE ::
A,DDE FEDC | A,_B,B,B, B,A,G,B, | A,DDC DEFG | Addc defg |
a/g/ffe fdcA | dfed cAGE | DddB cAGE | CDEC D2CE :|
